apps/cde-ui/src/assets/logo/facebook.svg

<svg width="48" height="48" viewBox="0 0 48 48" fill="none" xmlns="http://www.w3.org/2000/svg">
<g clip-path="url(#clip0_771_2825)">
<rect width="48" height="48" rx="24" fill="white"/>
<g clip-path="url(#clip1_771_2825)">
<path d="M48 24C48 37.2548 37.2548 48 24 48C10.7452 48 0 37.2548 0 24C0 10.7452 10.7452 0 24 0C37.2548 0 48 10.7452 48 24Z" fill="#E00D3A"/>
<path d="M20.1599 31.2001V47.5201C20.1599 47.7852 20.3748 48.0001 20.6399 48.0001H27.3599C27.625 48.0001 27.8399 47.7852 27.8399 47.5201V31.2001C27.8399 30.935 28.0548 30.7201 28.3199 30.7201H33.1199C33.385 30.7201 33.5999 30.5052 33.5999 30.2401V24.4801C33.5999 24.215 33.385 24.0001 33.1199 24.0001H28.3199C28.0548 24.0001 27.8399 23.7855 27.8399 23.5204V19.2001C27.8399 17.2801 30.2399 16.3201 31.1999 16.3201H34.0799C34.345 16.3201 34.5599 16.1052 34.5599 15.8401V10.0801C34.5599 9.815 34.3451 9.6001 34.08 9.6001H27.8399C23.2319 9.6001 20.1599 14.4001 20.1599 17.2801V23.5201C20.1599 23.7852 19.945 24.0001 19.6799 24.0001H14.8799C14.6148 24.0001 14.3999 24.215 14.3999 24.4801V30.2401C14.3999 30.5052 14.6148 30.7201 14.8799 30.7201H19.6799C19.945 30.7201 20.1599 30.935 20.1599 31.2001Z" fill="white"/>
</g>
</g>
<defs>
<clipPath id="clip0_771_2825">
<rect width="48" height="48" rx="24" fill="white"/>
</clipPath>
<clipPath id="clip1_771_2825">
<rect width="48" height="48" fill="white"/>
</clipPath>
</defs>
</svg>

<svg width="48" height="48" fill="none" xmlns="http://www.w3.org/2000/svg">
  <path d="M48 24c0 13.255-10.745 24-24 24S0 37.255 0 24 10.745 0 24 0s24 10.745 24 24Z" class='fbbg' fill='currentColor'/>
  <path d="M20.16 31.2v16.32c0 .265.215.48.48.48h6.72a.48.48 0 0 0 .48-.48V31.2a.48.48 0 0 1 .48-.48h4.8a.48.48 0 0 0 .48-.48v-5.76a.48.48 0 0 0-.48-.48h-4.8a.48.48 0 0 1-.48-.48V19.2c0-1.92 2.4-2.88 3.36-2.88h2.88a.48.48 0 0 0 .48-.48v-5.76a.48.48 0 0 0-.48-.48h-6.24c-4.608 0-7.68 4.8-7.68 7.68v6.24a.48.48 0 0 1-.48.48h-4.8a.48.48 0 0 0-.48.48v5.76c0 .265.215.48.48.48h4.8a.48.48 0 0 1 .48.48Z" fill="#fff"/>
</svg>
